!!!OTL: 502. Ade, mein Lieb, ade! / Zweite Melodie.
!!!ARE: Europa, Mitteleuropa, Deutschland, Rheinland
!!!SCT: B0502A
!!!TXL: @@DE
!!!YEM: Copyright 1995, estate of Helmut Schaffrath.
**kern	**text
*ICvox	*
*Ivox	*
*clefG2	*
*M6/8	*
*k[f#]	*
*G:	*
!LO:TX:a:t=Mäßig.	!
{8d	Wie
=1	=1
8d	ſchei-
8B	-nen
8c	die
8d	Stern-
8g	-lein
8b	ſo
=2	=2
4b	hell,
8a	ſo
4f#}	hell
{8d	her-
=3	=3
8g	-ab
8a	von
8b	des
8ddL	Him-
8ccJ	.
8b	-mels
=4	=4
[4.a	Höh';
8a]	.
8r}	.
{8a	ʒwei
=5	=5
8a	Lie-
8b	-ben-
8a	-de
8gL	ſtan-
8eeJ	.
8dd	-den
=6	=6
4dd	auf
8cc	der
4b}	Schwell',
{8b	ach,
=7	=7
4a	Hand
8b	in
4cc	Hand-
8dd	-a-
=8	=8
[4.b	-de!
8b]	.
8r}	.
{8a	ach,
=9	=9
4f#	Hand
8g	in
4a	Hand-
8b	-a-
=10	=10
[4.g	-de!
8g]	.
8r}	.
==	==
!!!AGN: Abschieds - Lied
!!!GTL: Abschiedslieder
!!!ONB: ESAC (Essen Associative Code) Database: BOEHME
!!!AMT: compound duple
!!!AIN: vox
!!!EED: Helmut Schaffrath
!!!EEV: 1.0
!!Aus Volksmund am Rhein, nach der Muſik v. K. Wilhelm.
!!@@COMMENT:"Die ʒweite Mel. iſt 1866 von Karl Wilhelm komponirt und mit dem
!!richtigen Tertanfang: "Wie ſcheinen"" etc. gedruckt."
!!@@END:
!!!URL-scan: https://archive.org/details/BoehmeVtLieder1895/page/n401/mode/2up
!!!ENC: Anna Maria Matuszewska
!!!EEV: 2024/11/07
*-	*-
